X: 37366
T: Sleamhnán Shéamuis
R: slide
M: 12/8
K: Dmajor
D|:E3 EDE F2E D3|B3 BAB d3 Bcd|
edc d2B A2F D2E|FED A2F E3 E2:|
A|:B2e ede f2e d3|B2e efg f2e d3|
B2e ede f2e d2B|A2F DEF E3 E2:|

